icons/folder-context-open.svg

<svg xmlns="http://www.w3.org/2000/svg" viewBox="0 0 32 32">
  <path d="M28.96692,12H9.44152a2,2,0,0,0-1.89737,1.36754L4,24V10H28a2,2,0,0,0-2-2H15.1241a2,2,0,0,1-1.28038-.46357L12.5563,6.46357A2,2,0,0,0,11.27592,6H4A2,2,0,0,0,2,8V24a2,2,0,0,0,2,2H26l4.80523-11.21213A2,2,0,0,0,28.96692,12Z" style="fill: #00897b"/>
  <path d="M30,22V20a2,2,0,0,0-2-2H22V16h2V10H18v6h2v2H14a2,2,0,0,0-2,2v2H10v6h6V22H14V20h6v2H18v6h6V22H22V20h6v2H26v6h6V22Z" style="fill: #b2dfdb"/>
</svg>

<svg xmlns="http://www.w3.org/2000/svg" viewBox="0 0 32 32"><path fill="#00897b" d="M28.967 12H9.442a2 2 0 0 0-1.898 1.368L4 24V10h24a2 2 0 0 0-2-2H15.124a2 2 0 0 1-1.28-.464l-1.288-1.072A2 2 0 0 0 11.276 6H4a2 2 0 0 0-2 2v16a2 2 0 0 0 2 2h22l4.805-11.212A2 2 0 0 0 28.967 12Z"/><path fill="#b2dfdb" d="M30 22v-2a2 2 0 0 0-2-2h-6v-2h2v-6h-6v6h2v2h-6a2 2 0 0 0-2 2v2h-2v6h6v-6h-2v-2h6v2h-2v6h6v-6h-2v-2h6v2h-2v6h6v-6Z"/></svg>
